X: 12576
T: Farewell To Spain
R: waltz
M: 3/4
K: Eminor
B,2|E2 E2 F2|E4 (EF)|G2 F2 E2|ED B,2 B,2|E2 E2 F2|E3 E F2|G2 A2 G2|F4 F2|
G2 F2 G2|A2 G2 AA|(BA) G2 E2|(ED) B,2 BA|G2 E2 E2|(ED) B,2 A,2|B,2 G2 F2|E4||
B,2|E2 E2 F2|E4 (EF)|G2 F2 E2|(ED) B,2 B,2|E2 E2 F2|E4 F2|G2 A2 G2|F4 F2|
G2 F2 G2|A2 G2 AA|BA G2 E2|(ED) B,2 (BA)|G2 E2 E2|ED B,2 A,2|B,2 G2 F2|E6||

